packages/webapp/public/images/template-logos/youtube.svg

<svg width="62" height="62" viewBox="0 0 62 62" fill="none" xmlns="http://www.w3.org/2000/svg">
<g clip-path="url(#clip0_496_1389)">
<path d="M51.8903 20.7889C51.3855 18.9029 49.9033 17.4208 48.0173 16.9159C44.6025 16 30.903 16 30.903 16C30.903 16 17.2036 16 13.7886 16.9159C11.9026 17.4208 10.4205 18.9029 9.9157 20.7889C8.99976 24.2038 8.99976 31.333 8.99976 31.333C8.99976 31.333 8.99976 38.4622 9.9157 41.8772C10.4205 43.7632 11.9026 45.2453 13.7886 45.75C17.2036 46.666 30.903 46.666 30.903 46.666C30.903 46.666 44.6025 46.666 48.0173 45.75C49.9033 45.2453 51.3855 43.7632 51.8903 41.8772C52.8063 38.4622 52.8063 31.333 52.8063 31.333C52.8063 31.333 52.8026 24.2038 51.8903 20.7889Z" fill="#FF0000"/>
<path d="M26.5183 37.9032L37.8991 31.333L26.5183 24.7627V37.9032Z" fill="white"/>
</g>
<defs>
<clipPath id="clip0_496_1389">
<rect width="44" height="30.8536" fill="white" transform="translate(9 16)"/>
</clipPath>
</defs>
</svg>

<svg xmlns="http://www.w3.org/2000/svg" width="62" height="62" fill="none"><g clip-path="url(#A)"><path d="M51.89 20.789c-.505-1.886-1.987-3.368-3.873-3.873C44.603 16 30.903 16 30.903 16s-13.699 0-17.114.916c-1.886.505-3.368 1.987-3.873 3.873C9 24.204 9 31.333 9 31.333s0 7.129.916 10.544c.505 1.886 1.987 3.368 3.873 3.873 3.415.916 17.114.916 17.114.916s13.7 0 17.114-.916c1.886-.505 3.368-1.987 3.873-3.873.916-3.415.916-10.544.916-10.544s-.004-7.129-.916-10.544z" fill="red"/><path d="M26.518 37.903l11.381-6.57-11.381-6.57v13.141z" fill="#fff"/></g><defs><clipPath id="A"><path fill="#fff" transform="translate(9 16)" d="M0 0h44v30.854H0z"/></clipPath></defs></svg>
